X:16
T:Chilling O Guiry with Variations. RH.016
T:Cats Dinner,The. RH.016
R:Air
S:Rev.R.Harrison’s MS,c1815,Cumbria
N:Originally transcribed with L:1/4. PJH.
O:England
A:Temple Sowerby,Cumbria
Z:vmp.Simon Wilson. Review PJH, 2008.
M:3/4
L:1/8
Q:3/4=50
K:G
G2B2B2|A2c2c2|G2B2B2|c4d2|\
G2B2B2|c2A2d2|B2G2G2|G6:|!
|:efg2g2|”tr”g4a2|e2c2c2|{d}c6|fga2a2|\
a4b2|f2d2d2|d6|efg2g2|!
g4a2|e2c2c2|d4c2|B2G2G2|c2A2A2|B2G2G2|G6:|!
|:DGBGBG|EAcAcA|DGBGBG|”tr”c4d2|\
DG/A/ BGBG|cADA dA|B2G2G2|G6:|!
|:efgggg|g4a2|e2c2c2|”tr”c6|fgaaaa|\
a4b2|f2d2d2|”tr”d6|efgggg|!
g4a2|e2c2c2|d4c2|B2G2G2|\
c2A2A2|B2G2G2|G6:|!
|:DGB2B2|EAc2c2|DGB2B2|”tr”c4d2|\
DGB2B2|c2A2d2|B2G2G2|G6:|!
|:D/E/F/G/A/B/c/d/e/f3/|g4a2|e2c2c2|”tr”c6|\
D/E/F/G/A/B/c/d/e/f/g|a4b2|fd^cdec|d6|!
D/E/F/G/A/B/c/d/e/f3/|g4a2|e2c2c2|d4c2|\
BGDGBG|cAecBA|B2G2G2|G6:|!
|:B2B2B2|c2c2c2|B2B2B2|”tr”c4e2|\
(edcBA)G|EAc4|B2G2G2|G6:|!
|:Bdg2g2|g4a2|ecBcec|c6|\
DFa2a2|a4b2|fd^cdec|d6|!
D/E/F/G/A/B/c/d/e/f3/|g4a2|e2c2c2|”tr”d4c2|\
BGEGBG|c/B/A ecBA|B2G2G2|G6:|!
|:g2b2b2|a2c’2c’2|g2b2b2|c’4d’2|\
g2b2b2|c’2a2d’2|b2g2g2|g6:|!
|:D/E/F/G/A/B/c/d/e/f3/|g6|\
f/e/d/c/B/A/G/F/E/D3|{d}c6|\
D/E/F/G/A/B/c/d/e/f/g|a6|\
g/f/e/d/c/B/A/G/F/E/D|d6|!
efgggg|g4a2|e2c2c2|d4c2|\
((3BGB) B4|((3cAc) c3d|B2G2G2|G6:|

